frontend/src/assets/svgs/checkboxes/design.svg

<svg viewBox="0 0 32 32" fill="none" xmlns="http://www.w3.org/2000/svg">
<path d="M15.4359 17H6.56195L10.9999 4.572L15.4359 17ZM16.1499 19L16.6059 20.278L18.1719 18.714L12.1299 1.788C12.0467 1.55498 11.8934 1.3534 11.6911 1.21088C11.4888 1.06836 11.2474 0.991856 10.9999 0.991856C10.7525 0.991856 10.5111 1.06836 10.3088 1.21088C10.1065 1.3534 9.95323 1.55498 9.86995 1.788L2.05795 23.67C2.01369 23.7937 1.99423 23.9249 2.00069 24.0561C2.00714 24.1874 2.03938 24.316 2.09556 24.4348C2.15174 24.5536 2.23076 24.6601 2.32811 24.7483C2.42546 24.8366 2.53924 24.9047 2.66295 24.949C2.78665 24.9933 2.91786 25.0127 3.04909 25.0063C3.18031 24.9998 3.30898 24.9676 3.42775 24.9114C3.54651 24.8552 3.65305 24.7762 3.74128 24.6788C3.8295 24.5815 3.89769 24.4677 3.94195 24.344L5.84795 19H16.1499ZM25.6179 14.096L15.9579 23.756C15.3949 24.3187 14.9954 25.0238 14.8019 25.796L14.0539 28.792C14.0307 28.884 14.0147 28.9776 14.0059 29.072C13.2609 29.1036 12.5147 29.0445 11.7839 28.896C11.6379 28.862 11.5839 28.676 11.6519 28.54C12.0119 27.844 12.1179 26.394 10.8439 25.88C9.12395 25.19 6.88795 26.13 5.11995 26.876C4.38795 27.184 3.73595 27.456 3.23195 27.568C2.45795 27.74 1.53595 27.438 0.799946 27.07C0.375946 26.858 -0.164054 27.234 0.079946 27.642C0.517946 28.374 1.30795 29.116 2.73195 29.292C4.37195 29.496 5.51395 28.988 6.68195 28.472C7.48195 28.116 8.29195 27.756 9.28195 27.616C9.45395 27.592 9.57195 27.796 9.50595 27.956C9.20195 28.67 9.23995 29.744 10.1379 30.444C11.1739 31.254 14.5199 31.466 16.7639 30.81L19.2059 30.2C19.9799 30.006 20.6859 29.608 21.2479 29.044L30.9079 19.384C31.6002 18.6806 31.9864 17.7322 31.9824 16.7453C31.9784 15.7584 31.5845 14.8131 30.8865 14.1154C30.1886 13.4177 29.2431 13.0241 28.2562 13.0205C27.2694 13.0169 26.321 13.4035 25.6179 14.096V14.096Z" fill="#4B00CC"/>
</svg>

<svg fill="none" xmlns="http://www.w3.org/2000/svg">
  <path d="M15.436 17H6.562L11 4.572 15.436 17Zm.714 2 .456 1.278 1.566-1.564L12.13 1.788a1.2 1.2 0 0 0-2.26 0L2.058 23.67a1 1 0 1 0 1.884.674L5.848 19H16.15Zm9.468-4.904-9.66 9.66a4.395 4.395 0 0 0-1.156 2.04l-.748 2.996c-.023.092-.04.186-.048.28a9.2 9.2 0 0 1-2.222-.176c-.146-.034-.2-.22-.132-.356.36-.696.466-2.146-.808-2.66-1.72-.69-3.956.25-5.724.996-.732.308-1.384.58-1.888.692-.774.172-1.696-.13-2.432-.498-.424-.212-.964.164-.72.572.438.732 1.228 1.474 2.652 1.65 1.64.204 2.782-.304 3.95-.82.8-.356 1.61-.716 2.6-.856.172-.024.29.18.224.34-.304.714-.266 1.788.632 2.488 1.036.81 4.382 1.022 6.626.366l2.442-.61a4.384 4.384 0 0 0 2.042-1.156l9.66-9.66a3.74 3.74 0 0 0-5.29-5.288Z" fill="#4B00CC"/>
</svg>
